X:1
T:Arrival of the Queen of Sheba
C:George Frideric Handel
M:4/4
L:1/16
Q:1/4=144
K:D
% Sinfonia from Solomon HWV 67, Act III — adapted for C4-D5 range
DEFGABcd cdcBAGFE|DEFGABcd cBAGFEDC|
FGABcdcB AGFGABcd|cBAGFGAB cBAGFEDC|
DEFGABcd cBAGFEDC|FGABcdcB AGFEDEFd|
dcBAGFED ABAGFED2|D8 z8|]
